fs/document_header_arrow_down_20_filled.svg

<svg viewBox="0 0 20 20" fill="none" xmlns="http://www.w3.org/2000/svg" height="1em" width="1em">
  <path d="M6 2C4.89543 2 4 2.89543 4 4V16C4 17.1046 4.89543 18 6 18H10.2572C9.47182 17.0491 9 15.8296 9 14.5C9 11.4624 11.4624 9 14.5 9C15.02 9 15.5232 9.07217 16 9.20703V4C16 2.89543 15.1046 2 14 2H6ZM7 4H13C13.5523 4 14 4.44772 14 5C14 5.55228 13.5523 6 13 6H7C6.44772 6 6 5.55228 6 5C6 4.44772 6.44772 4 7 4ZM19 14.5C19 16.9853 16.9853 19 14.5 19C12.0147 19 10 16.9853 10 14.5C10 12.0147 12.0147 10 14.5 10C16.9853 10 19 12.0147 19 14.5ZM14.146 16.8532L14.1486 16.8557C14.196 16.9026 14.2505 16.938 14.3086 16.9621C14.3667 16.9861 14.4303 16.9996 14.497 17L14.5 17L14.503 17C14.5697 16.9996 14.6333 16.9861 14.6914 16.9621C14.7504 16.9377 14.8056 16.9015 14.8536 16.8536L16.8536 14.8536C17.0488 14.6583 17.0488 14.3417 16.8536 14.1464C16.6583 13.9512 16.3417 13.9512 16.1464 14.1464L15 15.2929V12.5C15 12.2239 14.7761 12 14.5 12C14.2239 12 14 12.2239 14 12.5V15.2929L12.8536 14.1464C12.6583 13.9512 12.3417 13.9512 12.1464 14.1464C11.9512 14.3417 11.9512 14.6583 12.1464 14.8536L14.146 16.8532Z" fill="#212121"/>
</svg>

<svg viewBox="0 0 20 20" fill="none" xmlns="http://www.w3.org/2000/svg" height="1em" width="1em">
  <path d="M6 2a2 2 0 0 0-2 2v12a2 2 0 0 0 2 2h4.257A5.5 5.5 0 0 1 16 9.207V4a2 2 0 0 0-2-2H6Zm1 2h6a1 1 0 1 1 0 2H7a1 1 0 0 1 0-2Zm12 10.5a4.5 4.5 0 1 1-9 0 4.5 4.5 0 0 1 9 0Zm-4.854 2.353.003.003a.499.499 0 0 0 .348.144h.006a.5.5 0 0 0 .35-.146l2-2a.5.5 0 0 0-.707-.708L15 15.293V12.5a.5.5 0 0 0-1 0v2.793l-1.146-1.147a.5.5 0 0 0-.708.708l2 2Z" fill="#212121"/>
</svg>
